img/social/3.svg

<svg width="53" height="52" viewBox="0 0 53 52" fill="none" xmlns="http://www.w3.org/2000/svg">
<g clip-path="url(#clip0_1_8)">
<path d="M27.0002 2.00012C40.2547 2.00012 51.0001 12.7452 51.0001 25.9997C51.0001 39.2548 40.2547 50.0003 27.0002 50.0003C13.745 50.0003 2.99985 39.2548 2.99985 25.9997C2.99985 12.7452 13.745 2.00012 27.0002 2.00012Z" fill="black" fill-opacity="0.01" stroke="white" stroke-width="2"/>
<g clip-path="url(#clip1_1_8)">
<path d="M27.326 14C20.747 14.001 17.25 18.216 17.25 22.812C17.25 24.943 18.441 27.602 20.348 28.445C20.892 28.69 20.82 28.391 21.288 26.601C21.325 26.452 21.306 26.323 21.186 26.184C18.46 23.031 20.654 16.549 26.937 16.549C36.03 16.549 34.331 29.131 28.519 29.131C27.021 29.131 25.905 27.955 26.258 26.5C26.686 24.767 27.524 22.904 27.524 21.655C27.524 18.507 22.834 18.974 22.834 23.145C22.834 24.434 23.29 25.304 23.29 25.304C23.29 25.304 21.781 31.4 21.501 32.539C21.027 34.467 21.565 37.588 21.612 37.857C21.641 38.005 21.807 38.052 21.9 37.93C22.049 37.735 23.873 35.133 24.384 33.252C24.57 32.567 25.333 29.787 25.333 29.787C25.836 30.695 27.286 31.455 28.831 31.455C33.427 31.455 36.749 27.415 36.749 22.402C36.733 17.596 32.62 14 27.326 14V14Z" fill="white"/>
</g>
</g>
<defs>
<clipPath id="clip0_1_8">
<rect width="53" height="52" fill="white"/>
</clipPath>
<clipPath id="clip1_1_8">
<rect width="24" height="24" fill="white" transform="translate(15 14)"/>
</clipPath>
</defs>
</svg>

<svg width="53" height="52" fill="none" xmlns="http://www.w3.org/2000/svg"><g clip-path="url(#clip0_1_8)"><path d="M27 2c13.255 0 24 10.745 24 24S40.255 50 27 50 3 39.255 3 26 13.745 2 27 2z" fill="#000" fill-opacity=".01" stroke="#fff" stroke-width="2"/><g clip-path="url(#clip1_1_8)"><path d="M27.326 14c-6.579.001-10.076 4.216-10.076 8.812 0 2.131 1.191 4.79 3.098 5.633.544.245.472-.054.94-1.844a.425.425 0 00-.102-.417c-2.726-3.153-.532-9.635 5.751-9.635 9.093 0 7.394 12.582 1.582 12.582-1.498 0-2.614-1.176-2.261-2.631.428-1.733 1.266-3.596 1.266-4.845 0-3.148-4.69-2.681-4.69 1.49 0 1.289.456 2.159.456 2.159s-1.509 6.096-1.789 7.235c-.474 1.928.064 5.049.111 5.318.029.148.195.195.288.073.149-.195 1.973-2.797 2.484-4.678.186-.685.949-3.465.949-3.465.503.908 1.953 1.668 3.498 1.668 4.596 0 7.918-4.04 7.918-9.053C36.733 17.596 32.62 14 27.326 14z" fill="#fff"/></g></g><defs><clipPath id="clip0_1_8"><path fill="#fff" d="M0 0h53v52H0z"/></clipPath><clipPath id="clip1_1_8"><path fill="#fff" transform="translate(15 14)" d="M0 0h24v24H0z"/></clipPath></defs></svg>
